X: 9480
T: Dark
R: reel
M: 4/4
K: Eminor
B3 c BEGA|BEGc BEGA|~B3 c BEGA|BEGG DEGD|
B3 c BEGA|BdAc BEAE|GGAG ABAG|DEGA BdcB:|
|:A3 A AEGA|A2 AG AcBA|GAAG AEGA|AGEd BcAG|
A3 A AEGA|BcdA BcGA|BcAG ABAG|DEGA BdcB:|

